X:1
T:Title
%%score { ( 1 4 6 ) | ( 2 3 5 ) }
L:1/8
M:4/4
K:G
V:1 treble nm="Grand Piano"
V:4 treble 
V:6 treble 
V:2 treble 
V:3 treble 
V:5 treble 
V:1
 z4 z2[Q:1/4=94] d>c | B2 BA G2 GF | z4 z2 G2 | B2 BB B2 [Ac][GB] |[M:3/4] [FA]6 |[M:1/4] d>c | %6
[M:4/4] B2 BA G2 GF | z4 z2 G2 | %8
[M:41/32] B/d/4-d/4-d/4-d/4-d/4-d/4-d/4-d/4-d/4-d/4-d/4-d/4-d/4-d/4-d/-<d/B/[FA]/4-[FA]/4-[FA]/4-[FA]/4-[FA]/-<[FA]/ z/4 z/4 z/4 z/4 z/4 z/4 z/ [FA]3/4 | %9
[M:3/4] G6 |[M:1/4] (3:2:2G3/2G3/2 |[M:4/4] z2 [FA]2- [FA]/4 z/4 z/ z z2 | %12
 [B,D]2- [B,D]/4 z/4 z/ z (5:4:4D2- D/ GG3/2 | (9:8:8c/c3/2 c2- c/ B/-B3/2A3/2G | %14
[M:3/4] (3[DFd-]3 [Gd-]3 [Fd]3 |[M:1/4] (3:2:2B2 c |[M:4/4] (9:8:7d2 d3/2c B/-B3/2B3/2A | %17
[M:9/8] z3 z d2- d-d/4 z/4 z/ A- | %18
[M:41/32] A/4 z/4 d/4-d/4-d/4-d/4-d/4-d/4-d/4-d/4-d/4-d/4-d/4-d/4-d/4-d/4-d/4-d/-<d/ z/4 F/4-F/4-F/4-F/4-F/-<F/F/4-F/4-F/4-F/4-F/-<F/ z/4 z/ | %19
[M:3/4] [G,B,DG]6 |] %20
V:2
 z4 z2 [G,G]->[G,EG] | [G,DG]2 [G,DG][G,CD][K:bass] [G,B,D]2 [G,B,D][G,B,D] | %2
 [C,G,C]2 [E,G,C]2 [G,B,]2 [G,B,][K:treble][G,C] | %3
 [G,DG]2 [G,DG][G,DG] [G,DG]2[K:bass] [F,D][G,D] |[M:3/4] [D,D]6 |[M:1/4] A,3/2 z/ | %6
[M:4/4][K:treble] [G,DG]2 [G,DG][G,CD] [G,B,D]2 [G,B,D][K:bass][G,B,D] | %7
 [C,G,C]2 [E,G,C]2 [G,B,]2 [G,B,][K:treble][G,C] | %8
[M:41/32] z/4 z/4 z/4 z/4 z/4 z/4 z/4 z/4 z/4 z/4 z/4 z/4 z/4 z/4 z/4 z/4 z/4 z/4 z/4 z/4 z/4 z/4[K:bass] z/4 z/4 z/4 z/4 z/4 z/4 z/ D/4-D/4-D/4-D/4-D/4-D/4-D/-<D/ z/4 | %9
[M:3/4] [G,B,]6 |[M:1/4] (3:2:2[G,B,D]3/2[G,B,D]3/2 |[M:4/4] z2 [D,D]2- [D,D]/4 z/4 z/ z z2 | %12
 z2 C2- C/4 z/4 z/ z z2[K:treble] | %13
 (9:8:8[G,EG]/[G,EG]3/2 [G,EG]2- [G,EG]/ [G,DG]/-[G,DG]3/2[F,D]3/2[K:bass][E,^C] | %14
[M:3/4] (3z3 B,3 C3 |[M:1/4][K:treble] (3:2:2[G,-DG-]2 [G,CG] | %16
[M:4/4] (9:8:7[G,B,G]2 [G,B,G]3/2[G,EG] [G,DG]/-[G,DG]3/2[G,DG]3/2[G,B,=F] | %17
[M:9/8][K:bass] z3[K:treble] z G2- G-G/4 z/4 z/ z |[M:41/32] z41/4[K:bass] |[M:3/4] G,,6 |] %20
V:3
 z4 z2 B,2 | x4[K:bass] x4 | x7[K:treble] x | x6[K:bass] x2 |[M:3/4] x6 |[M:1/4] D,->[D,D] | %6
[M:4/4][K:treble] x7[K:bass] x | x7[K:treble] x | %8
[M:41/32] [G,DG]/[G,B,G]/4-[G,B,G]/4-[G,B,G]/4-[G,B,G]/4-[G,B,G]/4-[G,B,G]/4-[G,B,G]/4-[G,B,G]/4-[G,B,G]/4-[G,B,G]/4-[G,B,G]/4-[G,B,G]/4-[G,B,G]/4-[G,B,G]/4-[G,B,G]/-<[G,B,G]/[G,DG]/[K:bass][D,D]/4-[D,D]/4-[D,D]/4-[D,D]/4-[D,D]/-<[D,D]/D,/4-D,/4-D,/4-D,/4-D,/-<D,/[D,C]3/4 | %9
[M:3/4] x6 |[M:1/4] x2 |[M:4/4] (3[D,D]/[D,D]/- [D,D]2 z2 (5:4:5[D,D]2- [D,D]/ [D,D]/-[D,D]3/2D,/ | %12
 z4 (5:4:4B,2- B,/ [G,B,D][K:treble][G,B,D]3/2 | x185/32[K:bass] x2 |[M:3/4] D,6 | %15
[M:1/4][K:treble] x2 |[M:4/4] x8 | %17
[M:9/8][K:bass] z2[K:treble] [C,C]- [C,C]-[C,C]/4 z/4 z/ z z [G,D][G,D] | %18
[M:41/32] [G,G]/[G,G]/4-[G,G]/4-[G,G]/4-[G,G]/4-[G,G]/4-[G,G]/4-[G,G]/4-[G,G]/4-[G,G]/4-[G,G]/4-[G,G]/4-[G,G]/4-[G,G]/4-[G,G]/4-[G,G]/-<[G,G]/[G,DG]3/4[K:bass] z/4 z/4 z/4 z/4 z/4 z/4 z/4 z/4 z/4 z/4 z/4 z/4 z/4 z/4 z/4 z/4 z/ | %19
[M:3/4] x6 |] %20
V:4
 x8 | x8 | E2 G2 D2 z A | x8 |[M:3/4] x6 |[M:1/4] F2 |[M:4/4] x8 | E2 G2 D2 z A | %8
[M:41/32] z/4 z/4 z/4 z/4 z/4 z/4 z/4 z/4 z/4 z/4 z/4 z/4 z/4 z/4 z/4 z/4 z/4 z/4 z/4 z/4 z/4 z/4 z/4 z/4 z/4 z/4 z/4 z/4 z/ [GB]/4-[GB]/4-[GB]/4-[GB]/4-[GB]/4-[GB]/4-[GB]/-<[GB]/ z/4 | %9
[M:3/4] x6 |[M:1/4] x2 |[M:4/4] (3[FA]/[FA]/- [FA]2 z2 (5:4:5[FA]2- [FA]/ [FB]/-[FB]3/2[CFA]/ | %12
 [G,G]2- [G,EG]2- [G,-EG-]/<[G,G]/-[G,G]- [G,G]/4 z/4 z/ z | x8 |[M:3/4] x6 |[M:1/4] x2 | %16
[M:4/4] x8 |[M:9/8] z2 [EGe]- [EGe]-[EGe]/4 z/4 z/ z z G-G/4 z/4 z/ | %18
[M:41/32] B3/4 z/4 z/4 z/4 z/4 z/4 z/4 z/4 z/4 z/4 z/4 z/4 z/4 z/4 z/4 z/4 z/ B3/4 z/4 z/4 z/4 z/4 z/4 z/4 z/4 z/4 z/4 z/4 z/4 z/4 z/4 z/4 z/4 z/4 z/ | %19
[M:3/4] x6 |] %20
V:5
 x8 | x4[K:bass] x4 | x7[K:treble] x | x6[K:bass] x2 |[M:3/4] x6 |[M:1/4] x2 | %6
[M:4/4][K:treble] x7[K:bass] x | x7[K:treble] x |[M:41/32] x11/2[K:bass] x19/4 |[M:3/4] x6 | %10
[M:1/4] x2 |[M:4/4] x8 | G,,6- G,,/4 z/4 z/[K:treble] z | x185/32[K:bass] x2 |[M:3/4] x6 | %15
[M:1/4][K:treble] x2 |[M:4/4] x8 | %17
[M:9/8][K:bass] .[C,C]3[K:treble] z [G,B,D]2- [G,B,D]B,-[B,C-]/<C/- | %18
[M:41/32] [CD-]/4D/4-[B,-D]/4B,/4-B,/4-B,/4-B,/4-B,/4-B,/4-B,/4-B,/4-B,/4-B,/4-B,/4-B,/4-B,/4-B,/4-B,/-<B,/ z/4[K:bass] D,/4-D,/4-D,/4-D,/4-D,/-<D,/D,/4-D,/4-D,/4-D,/4-D,/-<D,/D,3/4 | %19
[M:3/4] x6 |] %20
V:6
 x8 | x8 | x8 | x8 |[M:3/4] x6 |[M:1/4] x2 |[M:4/4] x8 | x8 |[M:41/32] x41/4 |[M:3/4] x6 | %10
[M:1/4] x2 |[M:4/4] x8 | x8 | x8 |[M:3/4] x6 |[M:1/4] x2 |[M:4/4] x8 |[M:9/8] .[EG]3 z3 z3 | %18
[M:41/32] z/4 z/4 z/4 z/4 z/4 z/4 z/4 z/4 z/4 z/4 z/4 z/4 z/4 z/4 z/4 z/4 z/4 z/4 z/4 z/4 z/ [CA]/4-[CA]/4-[CA]/4-[CA]/4-[CA]/-<[CA]/-[CD-AB-]/4[DB]/4-[DB]/4-[DB]/4-[DB]/-<[DB]/-[C-DF-A-B]/4[CFA]/ | %19
[M:3/4] x6 |] %20

